Papirus/22x22/panel/hexchat-indicator.svg

<?xml version="1.0" encoding="UTF-8" standalone="no"?>
<svg xmlns:dc="http://purl.org/dc/elements/1.1/" xmlns:cc="http://creativecommons.org/ns#" xmlns:rdf="http://www.w3.org/1999/02/22-rdf-syntax-ns#" xmlns:svg="http://www.w3.org/2000/svg" xmlns="http://www.w3.org/2000/svg" width="22" viewBox="0 0 6.208889 6.208889" height="22" id="svg2" version="1.1">
    <metadata id="metadata10">
        <rdf:RDF>
            <cc:Work rdf:about="">
                <dc:format>
                    image/svg+xml
                </dc:format>
                <dc:type rdf:resource="http://purl.org/dc/dcmitype/StillImage"/>
                <dc:title/>
            </cc:Work>
        </rdf:RDF>
    </metadata>
    <path style="color:#000000;display:inline;visibility:visible;opacity:1;color-interpolation:sRGB;color-interpolation-filters:linearRGB;fill:#ffffff;fill-opacity:1;fill-rule:nonzero;stroke:none;color-rendering:auto;image-rendering:auto;shape-rendering:auto" d="M 1.8359738,1.1288889 A 0.28467281,0.28222221 0 0 0 1.5895805,1.2694488 L 0.6029052,2.9627821 a 0.28467281,0.28222221 0 0 0 0,0.2833246 L 1.5895805,4.93944 A 0.28467281,0.28222221 0 0 0 1.8359738,5.08 l 1.9722483,0 A 0.28467281,0.28222221 0 0 0 4.0540639,4.93944 L 5.0412905,3.2461067 a 0.28467281,0.28222221 0 0 0 0,-0.2833246 L 4.0540639,1.2694488 A 0.28467281,0.28222221 0 0 0 3.8082221,1.1288889 l -1.9722483,0 z m 0.2370225,0.5644444 a 0.21350459,0.20158734 0 0 1 0.00937,0 l 1.4794618,0 a 0.21350459,0.20158734 0 0 1 0.179696,0.092604 0.21350459,0.20158734 0 0 1 0,5.512e-4 L 2.8220979,2.7053646 1.9026708,1.7859375 A 0.21350459,0.20158734 0 0 1 2.0729963,1.6933333 Z M 1.5995024,2.2809288 2.423018,3.1044444 1.5995024,3.9279601 1.1574277,3.205868 a 0.21350459,0.20158734 0 0 1 0,-0.2028472 l 0.4420747,-0.722092 z m 2.4451909,0 0.4420748,0.722092 a 0.21350459,0.20158734 0 0 1 0,0.2028472 L 4.0446933,3.9279601 3.2211776,3.1044444 4.0446933,2.2809288 Z M 2.8220979,3.5035241 3.7409736,4.4224002 a 0.21350459,0.20158734 0 0 1 -0.1791448,0.093155 l -1.4794618,0 A 0.21350459,0.20158734 0 0 1 1.9026708,4.4229514 L 2.8220979,3.5035241 Z" id="path4146"/>
</svg>

<?xml version="1.0" encoding="UTF-8" standalone="no"?>
<svg id="svg2" xmlns:rdf="http://www.w3.org/1999/02/22-rdf-syntax-ns#" xmlns="http://www.w3.org/2000/svg" height="22" width="22" version="1.1" xmlns:cc="http://creativecommons.org/ns#" viewBox="0 0 6.208889 6.208889" xmlns:dc="http://purl.org/dc/elements/1.1/">
 <metadata id="metadata10">
  <rdf:RDF>
   <cc:Work rdf:about="">
    <dc:format>image/svg+xml</dc:format>
    <dc:type rdf:resource="http://purl.org/dc/dcmitype/StillImage"/>
    <dc:title/>
   </cc:Work>
  </rdf:RDF>
 </metadata>
 <path id="path4146" style="color-rendering:auto;color:#000000;shape-rendering:auto;image-rendering:auto" d="m1.836 1.1289a0.28467 0.28222 0 0 0 -0.2464 0.1405l-0.98669 1.6934a0.28467 0.28222 0 0 0 0 0.28332l0.98669 1.6933a0.28467 0.28222 0 0 0 0.2464 0.1406h1.9722a0.28467 0.28222 0 0 0 0.2459 -0.1406l0.9872-1.6933a0.28467 0.28222 0 0 0 0 -0.28332l-0.9872-1.6934a0.28467 0.28222 0 0 0 -0.2459 -0.1405h-1.9722zm0.23702 0.56444a0.2135 0.20159 0 0 1 0.00937 0h1.4795a0.2135 0.20159 0 0 1 0.1797 0.092604 0.2135 0.20159 0 0 1 0 0.0005512l-0.9195 0.9189-0.9194-0.9195a0.2135 0.20159 0 0 1 0.1703 -0.0926zm-0.4735 0.5876 0.8235 0.8235-0.8235 0.8236-0.4421-0.7221a0.2135 0.20159 0 0 1 0 -0.20285l0.44207-0.72209zm2.4452 0 0.44207 0.72209a0.2135 0.20159 0 0 1 0 0.20285l-0.4421 0.7222-0.8235-0.8236 0.8235-0.8235zm-1.2226 1.2226 0.9189 0.9189a0.2135 0.20159 0 0 1 -0.17914 0.093155h-1.4795a0.2135 0.20159 0 0 1 -0.1797 -0.0926l0.9194-0.9195z" fill="#fff"/>
</svg>
